storage/app/icons/phosphoricons/duotone/wall-duotone.svg

<svg xmlns="http://www.w3.org/2000/svg" fill="currentColor" viewBox="0 0 256 256"><path d="M128 104H32V56h96Zm48 0v48h-48v48h96v-96Z" opacity=".2"/><path d="M224 48H32a8 8 0 0 0-8 8v144a8 8 0 0 0 8 8h192a8 8 0 0 0 8-8V56a8 8 0 0 0-8-8M88 144v-32h80v32Zm-48 0v-32h32v32Zm144-32h32v32h-32Zm32-16h-80V64h80Zm-96-32v32H40V64Zm-80 96h80v32H40Zm96 32v-32h80v32Z"/></svg>

<svg xmlns="http://www.w3.org/2000/svg" viewBox="0 0 256 256" fill="currentColor"><path d="M128,104H32V56h96Zm48,0v48H128v48h96V104Z" opacity="0.2"/><path d="M224,48H32a8,8,0,0,0-8,8V200a8,8,0,0,0,8,8H224a8,8,0,0,0,8-8V56A8,8,0,0,0,224,48ZM88,144V112h80v32Zm-48,0V112H72v32Zm144-32h32v32H184Zm32-16H136V64h80ZM120,64V96H40V64ZM40,160h80v32H40Zm96,32V160h80v32Z"/></svg>
